X: 4
T: Johnny Harling's
R: reel
M: 4/4
L: 1/8
K: Dmaj
|:FA (3AAA DFAd|(ef) af ed (3Bcd|(AB) dB A2 de|dBAF EDBA|
FA (3AAA AFEF|D2 GA BAgb|afed (3Bcd Ad|afeg fddz:|
|:|fB (3BBB Bfbf|aA (3AAA dB (3BBB|bB (3BBB FB (3BBB|Acec B3 c|
dFAd efaz|GFGA Bdgb|afed (3Bcd Af|afeg fedz:|

composer: Lizz Carrol
